X:1
T:The Rescue of Will Stutly
M:4/4
L:1/4
K:A
 C| E E E C/2B,/2| A, A, A, E| A A B B| A2 A- E| F A B z/2 G/2| A C B,3/2 E/2|\
 F3/2 E/2 F C| B,3 C| E E EC/2-B,/2| A, A, A, E| A A B c| A2 A- E|\
 FG/2-A/2 B3/2 A/2| A C B,3/2 E/2| F3/2 E/2 F C| B,3||
